raw-svg/microchip-ai.svg

<svg fill="none" height="24" viewBox="0 0 24 24" width="24" xmlns="http://www.w3.org/2000/svg"><path clip-rule="evenodd" d="m8.75 4c0-.41421-.33579-.75-.75-.75s-.75.33579-.75.75v1.25h-.25c-.9665 0-1.75.7835-1.75 1.75v.25h-1.25c-.41421 0-.75.33579-.75.75s.33579.75.75.75h1.25v2.5h-1.25c-.41421 0-.75.3358-.75.75s.33579.75.75.75h1.25v2.5h-1.25c-.41421 0-.75.3358-.75.75s.33579.75.75.75h1.25v.25c0 .9665.7835 1.75 1.75 1.75h.25v1.25c0 .4142.33579.75.75.75s.75-.3358.75-.75v-1.25h2.5v1.25c0 .4142.3358.75.75.75s.75-.3358.75-.75v-1.25h2.5v1.25c0 .4142.3358.75.75.75s.75-.3358.75-.75v-1.25h.25c.9665 0 1.75-.7835 1.75-1.75v-.25h1.25c.4142 0 .75-.3358.75-.75s-.3358-.75-.75-.75h-1.25v-2.5h1.25c.4142 0 .75-.3358.75-.75s-.3358-.75-.75-.75h-1.25v-2.5h1.25c.4142 0 .75-.33579.75-.75s-.3358-.75-.75-.75h-1.25v-.25c0-.9665-.7835-1.75-1.75-1.75h-.25v-1.25c0-.41421-.3358-.75-.75-.75s-.75.33579-.75.75v1.25h-2.5v-1.25c0-.41421-.3358-.75-.75-.75s-.75.33579-.75.75v1.25h-2.5zm-2 3c0-.13807.11193-.25.25-.25h1 4 4 1c.1381 0 .25.11193.25.25v1 4 4 1c0 .1381-.1119.25-.25.25h-1-4-4-1c-.13807 0-.25-.1119-.25-.25v-1-8zm5.0486 7.7531-.2751-.7719h-2.02683l-.27509.7719c-.13906.3902-.56808.5937-.95826.4547-.39017-.1391-.59374-.5681-.45469-.9583l1.70002-4.77.00339-.00953.00365-.00944c.15207-.39283.51591-.71175.99441-.71175.4786 0 .8424.31892.9944.71175l.0037.00944.0034.00953 1.7 4.77c.139.3902-.0645.8192-.4547.9583-.3902.139-.8192-.0645-.9583-.4547zm-1.2885-3.6155.4788 1.3436h-.9576zm3.7399-1.63882c0-.41421.3358-.75.75-.75s.75.33579.75.75v5.00252c0 .4143-.3358.75-.75.75s-.75-.3357-.75-.75z" fill="#000" fill-rule="evenodd"/></svg>

<svg width="24" height="24" viewBox="0 0 24 24" fill="none" xmlns="http://www.w3.org/2000/svg">
<path fill-rule="evenodd" clip-rule="evenodd" d="M8.75 4C8.75 3.58579 8.41421 3.25 8 3.25C7.58579 3.25 7.25 3.58579 7.25 4V5.25H7C6.0335 5.25 5.25 6.0335 5.25 7V7.25H4C3.58579 7.25 3.25 7.58579 3.25 8C3.25 8.41421 3.58579 8.75 4 8.75H5.25V11.25H4C3.58579 11.25 3.25 11.5858 3.25 12C3.25 12.4142 3.58579 12.75 4 12.75H5.25V15.25H4C3.58579 15.25 3.25 15.5858 3.25 16C3.25 16.4142 3.58579 16.75 4 16.75H5.25V17C5.25 17.9665 6.0335 18.75 7 18.75H7.25V20C7.25 20.4142 7.58579 20.75 8 20.75C8.41421 20.75 8.75 20.4142 8.75 20V18.75H11.25V20C11.25 20.4142 11.5858 20.75 12 20.75C12.4142 20.75 12.75 20.4142 12.75 20V18.75H15.25V20C15.25 20.4142 15.5858 20.75 16 20.75C16.4142 20.75 16.75 20.4142 16.75 20V18.75H17C17.9665 18.75 18.75 17.9665 18.75 17V16.75H20C20.4142 16.75 20.75 16.4142 20.75 16C20.75 15.5858 20.4142 15.25 20 15.25H18.75V12.75H20C20.4142 12.75 20.75 12.4142 20.75 12C20.75 11.5858 20.4142 11.25 20 11.25H18.75V8.75H20C20.4142 8.75 20.75 8.41421 20.75 8C20.75 7.58579 20.4142 7.25 20 7.25H18.75V7C18.75 6.0335 17.9665 5.25 17 5.25H16.75V4C16.75 3.58579 16.4142 3.25 16 3.25C15.5858 3.25 15.25 3.58579 15.25 4V5.25H12.75V4C12.75 3.58579 12.4142 3.25 12 3.25C11.5858 3.25 11.25 3.58579 11.25 4V5.25H8.75V4ZM6.75 7C6.75 6.86193 6.86193 6.75 7 6.75H8H12H16H17C17.1381 6.75 17.25 6.86193 17.25 7V8V12V16V17C17.25 17.1381 17.1381 17.25 17 17.25H16H12H8H7C6.86193 17.25 6.75 17.1381 6.75 17V16V8V7ZM11.7986 14.7531L11.5235 13.9812H9.49667L9.22158 14.7531C9.08252 15.1433 8.6535 15.3468 8.26332 15.2078C7.87315 15.0687 7.66958 14.6397 7.80863 14.2495L9.50865 9.4795L9.51204 9.46997L9.51569 9.46053C9.66776 9.0677 10.0316 8.74878 10.5101 8.74878C10.9887 8.74878 11.3525 9.0677 11.5045 9.46053L11.5082 9.46997L11.5116 9.4795L13.2116 14.2495C13.3506 14.6397 13.1471 15.0687 12.7569 15.2078C12.3667 15.3468 11.9377 15.1433 11.7986 14.7531ZM10.5101 11.1376L10.9889 12.4812H10.0313L10.5101 11.1376ZM14.25 9.49878C14.25 9.08457 14.5858 8.74878 15 8.74878C15.4142 8.74878 15.75 9.08457 15.75 9.49878V14.5013C15.75 14.9156 15.4142 15.2513 15 15.2513C14.5858 15.2513 14.25 14.9156 14.25 14.5013V9.49878Z" fill="black"/>
</svg>
